X: 4150
T: Blue Fiddle
R: polka
M: 2/4
K: Ddorian
|:A,>D DE FD|A,E FA GF|GE cE ED|GE CE DC|
A,>D DE FD|A,E FA GF|GE cG EC|1 D2 DF ED:|2 D2 D2 D>c||
|:d2 de dc|dD DE F/G/A|d2 dg/f/ ed|eA AG A/B/c|
d2 dc AG|AD DE FG|A>c cA F/G/A|1 Gc cG A/B/c:|2 G>c cG E/D/c||

